Yaru++/mimetypes/16/application-mspowerpoint.svg

<svg height="16" width="16" xmlns="http://www.w3.org/2000/svg">
  <g fill="#808080">
    <path d="m8.6294511.14469283c-2.7090669.48244473-5.4195999 1.12252977-8.12866754 1.59611657 0 4.1210245-.001763 8.2438128 0 12.3666006 2.69492994.471824 5.39129414 1.101326 8.08092484 1.59259h.8072807v-15.55530717zm-4.0762685 4.89821167c.5344793-.0117587 1.0473471.0654547 1.4640074.4424273.7981332.9684954.5870788 2.7498451-.596238 3.3294529-.4203604.2147857-.9018956.1853898-1.3592994.1704959-.0018667.7240396-.0037333 1.4479224-.0018667 2.1720014-.3666645-.031359-.7349353-.062709-1.1015998-.092502-.0168516-1.9777536-.0207716-3.8659082.0016592-5.8436221.5214554-.0650627 1.0589171-.1669685 1.5933964-.1783349zm-.061578 1.0731055c-.1458424-.00368-.2950562.00784-.4318485.015678-.0055.6222121-.00902 1.2423864.029783 1.8627565.3685062-.04429.846275-.00784 1.0573844-.3888092.1759046-.3739156.1869582-.8520097-.0242974-1.2149898-.1539166-.2140018-.3881422-.2680901-.6312302-.2747532z"/>
    <path d="m9.944806 2.3669019v1.8464516c.260369-.056048.543239-.1610893.833047-.1783348v2.4986085h.555547 1.927867c-.08823.7580211-.42615 1.537168-1.094545 1.9333065-.655548.4407419-1.488595.4464251-2.221916.2187053.0018.3629407-.0018 1.0961907 0 1.459131h4.444101v.555544h-4.444101v1.111084h4.444101v.555543h-4.444101v1.666667h5.555194v-11.6664709zm1.388594 1.3313579c1.181184.1222868 2.157852 1.1014038 2.286476 2.2796681h-2.286476z"/>
  </g>
</svg>

<svg xmlns="http://www.w3.org/2000/svg" width="16" height="16" version="1.1">
 <path d="M 8.6294511,0.14469283 C 5.9203842,0.62713756 3.2098512,1.2672226 0.50078356,1.7408094 c 0,4.1210245 -0.001763,8.2438128 0,12.3666006 C 3.1957135,14.579234 5.8920777,15.208736 8.5817084,15.7 H 9.3889891 V 0.14469283 Z M 4.5531826,5.0429045 C 5.0876619,5.0311458 5.6005297,5.1083592 6.01719,5.4853318 6.8153232,6.4538272 6.6042688,8.2351769 5.420952,8.8147847 5.0005916,9.0295704 4.5190564,9.0001745 4.0616526,8.9852806 4.0597859,9.7093202 4.0579193,10.433203 4.0597859,11.157282 3.6931214,11.125923 3.3248506,11.094573 2.9581861,11.06478 2.9413345,9.0870264 2.9374145,7.1988718 2.9598453,5.2211579 3.4813007,5.1560952 4.0187624,5.0541894 4.5532417,5.042823 Z M 4.4916046,6.11601 C 4.3457622,6.11233 4.1965484,6.12385 4.0597561,6.131688 c -0.0055,0.6222121 -0.00902,1.2423864 0.029783,1.8627565 0.3685062,-0.04429 0.846275,-0.00784 1.0573844,-0.3888092 C 5.3228281,7.2317197 5.3338817,6.7536256 5.1226261,6.3906455 4.9687095,6.1766437 4.7344839,6.1225554 4.4913959,6.1158923 Z" style="fill:#808080"/>
 <path d="m 9.944806,2.3669019 v 1.8464516 c 0.260369,-0.056048 0.543239,-0.1610893 0.833047,-0.1783348 v 2.4986085 h 0.555547 1.927867 c -0.08823,0.7580211 -0.42615,1.537168 -1.094545,1.9333065 -0.655548,0.4407419 -1.488595,0.4464251 -2.221916,0.2187053 0.0018,0.3629407 -0.0018,1.0961907 0,1.459131 h 4.444101 v 0.555544 H 9.944806 v 1.111084 h 4.444101 v 0.555543 H 9.944806 v 1.666667 H 15.5 V 2.3671371 Z M 11.3334,3.6982598 c 1.181184,0.1222868 2.157852,1.1014038 2.286476,2.2796681 H 11.3334 Z" style="fill:#808080"/>
</svg>
